X:021 
T:Bog of Allen, The 
F:file ID: cre.5/021bog_a
M:6/8
%%Q:160
R:jig
K:D
B:CRE5.023 (MÃÂÃÂÃÂÃÂ³in Almhaine)
A/G/|FGF FED|FAA A2d|Bdd Add|Bdd Add|
FGF FED|FAA A2d|Bc/d/B AGE|FDD D2:|
|:g|fgf fed|faa a2f|efe ecA|Bgg g2 a/g/|
fgf efe|ded cBA|Bc/d/B AGE|1FDD D2:|2FDD D3-|D6||

%%%

